X: 1
P: Lieutenant Howard Douglas
R: strathspey
C: Robert Mackintosh
C: Winston Fizgerald Collection
C: Arr. T. Traub 11-25-2002
M: 4/4
L: 1/8
K: Dm
R: strathspey
|:d>c|"Dm"Ac AEc>A G/F/E/D/ C>E|"Dm"Dc Aa"C"g>e "Dm"d/d/d:|
e/f/g|"Dm"a<df>d a/g/f/e/ f<d|"C"g>c e<c g>c e<g|"Dm"a<df>d a/g/f/e/ f<d|"C"c<a"Am"g>e "Dm"d/d/d e/f/g|
"Dm"a<df>d "G"a/g/f/e/ f<d|"C"g>c e<c g>c e<g|"Dm"a>g e<c "C"f>e d<e|"Am"d>c A>c "Dm"d/d/d d|]
